public/assets/images/logo-github3.svg

<svg width="46" height="45" viewBox="0 0 46 45" fill="none" xmlns="http://www.w3.org/2000/svg">
<path d="M15.8514 36.2339C15.8514 36.42 15.6427 36.5689 15.3796 36.5689C15.0802 36.5968 14.8716 36.4479 14.8716 36.2339C14.8716 36.0478 15.0802 35.8989 15.3434 35.8989C15.6155 35.871 15.8514 36.0199 15.8514 36.2339ZM13.0298 35.8152C12.9663 36.0013 13.1478 36.2153 13.42 36.2712C13.6559 36.3642 13.928 36.2712 13.9825 36.085C14.0369 35.8989 13.8645 35.6849 13.5923 35.6012C13.3565 35.5361 13.0934 35.6291 13.0298 35.8152ZM17.0399 35.657C16.7768 35.7222 16.5954 35.8989 16.6226 36.113C16.6498 36.2991 16.8857 36.42 17.1579 36.3549C17.421 36.2898 17.6024 36.113 17.5752 35.9269C17.548 35.7501 17.303 35.6291 17.0399 35.657ZM23.0097 0C10.426 0 0.800003 9.79824 0.800003 22.7044C0.800003 33.0237 7.13266 41.8542 16.178 44.9621C17.3393 45.1761 17.7476 44.441 17.7476 43.8362C17.7476 43.2593 17.7204 40.0769 17.7204 38.1229C17.7204 38.1229 11.3696 39.5186 10.0359 35.3499C10.0359 35.3499 9.00162 32.6422 7.51371 31.9443C7.51371 31.9443 5.43609 30.4834 7.65887 30.5113C7.65887 30.5113 9.91795 30.6974 11.1609 32.912C13.1478 36.5038 16.4774 35.4709 17.7748 34.8568C17.9835 33.368 18.5732 32.3351 19.2264 31.721C14.1548 31.1441 9.03791 30.3903 9.03791 21.4389C9.03791 18.88 9.72742 17.5959 11.179 15.9582C10.9431 15.3534 10.172 12.8596 11.4149 9.64005C13.3111 9.03522 17.675 12.1524 17.675 12.1524C19.4895 11.6313 21.4401 11.3615 23.3726 11.3615C25.305 11.3615 27.2556 11.6313 29.0702 12.1524C29.0702 12.1524 33.4341 9.02592 35.3302 9.64005C36.5732 12.8689 35.802 15.3534 35.5661 15.9582C37.0177 17.6052 37.9069 18.8893 37.9069 21.4389C37.9069 30.4183 32.5631 31.1348 27.4915 31.721C28.3262 32.4561 29.0339 33.8518 29.0339 36.0385C29.0339 39.1743 29.0067 43.0545 29.0067 43.8176C29.0067 44.4224 29.424 45.1575 30.5762 44.9435C39.6488 41.8542 45.8 33.0237 45.8 22.7044C45.8 9.79824 35.5933 0 23.0097 0ZM9.61855 32.0932C9.50061 32.1862 9.52783 32.4002 9.68206 32.577C9.82722 32.7259 10.0359 32.7911 10.1538 32.6701C10.2718 32.577 10.2446 32.363 10.0903 32.1862C9.94516 32.0373 9.7365 31.9722 9.61855 32.0932ZM8.63871 31.3395C8.5752 31.4604 8.66593 31.6093 8.84738 31.7024C8.99254 31.7954 9.174 31.7675 9.2375 31.6372C9.30101 31.5163 9.21029 31.3674 9.02883 31.2743C8.84738 31.2185 8.70222 31.2464 8.63871 31.3395ZM11.5782 34.6521C11.4331 34.773 11.4875 35.0522 11.6962 35.229C11.9048 35.443 12.1679 35.4709 12.2859 35.322C12.4038 35.2011 12.3494 34.9219 12.1679 34.7451C11.9684 34.5311 11.6962 34.5032 11.5782 34.6521ZM10.544 33.2842C10.3988 33.3773 10.3988 33.6192 10.544 33.8332C10.6891 34.0472 10.9341 34.1403 11.052 34.0472C11.1972 33.9263 11.1972 33.6843 11.052 33.4703C10.925 33.2563 10.6891 33.1633 10.544 33.2842Z" fill="#24292E"/>
</svg>

<svg xmlns="http://www.w3.org/2000/svg" width="46" height="45" fill="none"><path fill="#24292E" d="M15.851 36.234c0 .186-.208.335-.471.335-.3.028-.508-.121-.508-.335 0-.186.208-.335.471-.335.273-.028.508.12.508.335Zm-2.821-.419c-.064.186.118.4.39.456.236.093.508 0 .563-.186.054-.186-.119-.4-.39-.484-.236-.065-.5.028-.563.214Zm4.01-.158c-.263.065-.445.242-.417.456.027.186.263.307.535.242.263-.065.444-.242.417-.428-.027-.177-.272-.298-.535-.27ZM23.01 0C10.426 0 .8 9.798.8 22.704c0 10.32 6.333 19.15 15.378 22.258 1.161.214 1.57-.521 1.57-1.126 0-.577-.028-3.76-.028-5.713 0 0-6.35 1.396-7.684-2.773 0 0-1.034-2.708-2.522-3.406 0 0-2.078-1.46.145-1.433 0 0 2.259.186 3.502 2.401 1.987 3.592 5.316 2.559 6.614 1.945.209-1.489.798-2.522 1.451-3.136-5.071-.577-10.188-1.33-10.188-10.282 0-2.559.69-3.843 2.141-5.48-.236-.606-1.007-3.1.236-6.319 1.896-.605 6.26 2.512 6.26 2.512a20.816 20.816 0 0 1 5.698-.79c1.932 0 3.883.27 5.697.79 0 0 4.364-3.126 6.26-2.512 1.243 3.229.472 5.713.236 6.318 1.452 1.647 2.34 2.931 2.34 5.48 0 8.98-5.343 9.697-10.415 10.283.835.735 1.543 2.13 1.543 4.317 0 3.136-.027 7.017-.027 7.78 0 .604.417 1.34 1.57 1.126 9.072-3.09 15.223-11.92 15.223-22.24C45.8 9.798 35.593 0 23.01 0ZM9.619 32.093c-.118.093-.091.307.063.484.145.149.354.214.472.093.118-.093.09-.307-.064-.484-.145-.149-.354-.214-.471-.093Zm-.98-.754c-.064.121.027.27.208.363.146.093.327.065.39-.065.064-.12-.027-.27-.208-.363-.182-.056-.327-.028-.39.066Zm2.94 3.313c-.146.121-.091.4.117.577.209.214.472.242.59.093.118-.12.063-.4-.118-.577-.2-.214-.472-.242-.59-.093Zm-1.035-1.368c-.145.093-.145.335 0 .55.145.213.39.306.508.213.145-.12.145-.363 0-.577-.127-.214-.363-.307-.508-.186Z"/></svg>
